assets/img/careers/noun_Mountains_2385982.svg

<svg width="83" height="70" viewBox="0 0 83 70" fill="none" xmlns="http://www.w3.org/2000/svg">
<path d="M58.9081 32.7709C58.6751 32.4143 58.2859 32.1919 57.8605 32.1716C57.4306 32.1548 57.0264 32.3375 56.7616 32.6712L52.901 37.5327L45.9759 26.9871V21.1582H53.9098C54.6415 21.1582 55.2338 20.566 55.2338 19.8343V13.3708C55.2338 12.6391 54.6415 12.0469 53.9098 12.0469H44.6529C43.9212 12.0469 43.3289 12.6391 43.3289 13.3708V19.8343V26.95L27.515 48.5434L22.6288 40.7534C22.3966 40.3827 21.9959 40.1505 21.559 40.1338C21.1283 40.1276 20.7047 40.3173 20.4434 40.6677L0.260449 67.887C-0.036995 68.2886 -0.083774 68.8243 0.141295 69.2709C0.366364 69.7175 0.823563 70 1.32401 70H80.7601C80.7663 70 80.7725 69.9991 80.7778 70C81.5095 70 82.1017 69.4077 82.1017 68.676C82.1017 68.338 81.9746 68.0291 81.7663 67.7952L58.9081 32.7709ZM44.5929 29.7056L51.6927 40.5168L53.1208 42.6907L48.3873 45.6122L43.802 40.5406C43.5381 40.2476 43.156 40.0905 42.7623 40.1055C42.3678 40.1232 42.0024 40.3147 41.7641 40.6289L37.1312 46.7464L34.6757 43.2459L44.5929 29.7056ZM52.5868 18.5112H45.9768V14.6957H52.5868V18.5112ZM21.4161 43.8028L23.5882 47.2654L19.0294 50.5823L17.3816 49.2433L21.4161 43.8028ZM3.95335 67.3521L15.8026 51.3731L18.1495 53.2804C18.3922 53.4781 18.6879 53.577 18.9844 53.577C19.2572 53.577 19.5308 53.4931 19.7629 53.3237L24.9977 49.5152L25.823 50.8312L20.2633 58.1843C19.822 58.7677 19.9377 59.5983 20.5211 60.0387C20.7603 60.2196 21.0401 60.307 21.319 60.307C21.7197 60.307 22.1151 60.1261 22.3755 59.7818L28.4859 51.7005C28.4876 51.6979 28.4894 51.6935 28.492 51.6908C28.4938 51.6891 28.4965 51.6873 28.4982 51.6847L33.0252 45.5036L36.0076 49.7561C36.2503 50.103 36.644 50.3122 37.0676 50.3192C37.0756 50.3192 37.0835 50.3192 37.0914 50.3192C37.5054 50.3192 37.8964 50.1251 38.1471 49.795L42.9106 43.5045L47.1631 48.208C47.592 48.6828 48.2981 48.7826 48.84 48.4472L54.5753 44.9079L61.5807 55.5744C61.8349 55.9618 62.2577 56.1719 62.6884 56.1719C62.9373 56.1719 63.1897 56.1013 63.4139 55.9548C64.0247 55.5532 64.1951 54.7323 63.7943 54.1216L54.4324 39.8637L57.6945 35.7559L78.3153 67.3521H3.95335Z" fill="#5e2ced"/>
<path d="M12.3771 19.5069H24.7488C26.9572 19.5069 28.7542 17.7107 28.7542 15.5024C28.7542 13.2941 26.9572 11.4979 24.7488 11.4979H22.3199C21.7541 9.6709 20.048 8.3399 18.0374 8.3399C16.0268 8.3399 14.3206 9.6709 13.7549 11.4979H12.378C10.1697 11.4979 8.37352 13.2941 8.37352 15.5024C8.37352 17.7107 10.1688 19.5069 12.3771 19.5069ZM12.3771 14.1458H14.8785C15.6102 14.1458 16.2024 13.5536 16.2024 12.8219C16.2024 11.8104 17.025 10.9878 18.0365 10.9878C19.048 10.9878 19.8706 11.8104 19.8706 12.8219C19.8706 13.5536 20.4628 14.1458 21.1945 14.1458H24.748C25.4964 14.1458 26.1054 14.7539 26.1054 15.5024C26.1054 16.2509 25.4964 16.859 24.748 16.859H12.3771C11.6286 16.859 11.0205 16.2509 11.0205 15.5024C11.0205 14.7539 11.6295 14.1458 12.3771 14.1458Z" fill="#5e2ced"/>
<path d="M62.7837 10.9869H73.9242C76.0822 10.9869 77.8378 9.23136 77.8378 7.07334C77.8378 4.91621 76.0822 3.16067 73.9242 3.16067H71.1422C70.7644 1.35836 69.1625 0 67.2498 0C65.3372 0 63.7352 1.35836 63.3574 3.16067H62.7846C60.6275 3.16067 58.8719 4.91621 58.8719 7.07334C58.8711 9.23224 60.6257 10.9869 62.7837 10.9869ZM62.7837 5.80943H64.6478C65.0433 5.80943 65.4193 5.63202 65.6699 5.32663C65.9215 5.02124 66.023 4.61877 65.9462 4.23041C65.9303 4.14833 65.9197 4.06448 65.9197 3.9771C65.9197 3.24452 66.5155 2.64875 67.2481 2.64875C67.9806 2.64875 68.5764 3.24452 68.5764 3.9771C68.5764 4.0636 68.5658 4.14833 68.5499 4.23041C68.474 4.61877 68.5746 5.02124 68.8262 5.32663C69.0777 5.63202 69.4528 5.80943 69.8483 5.80943H73.9224C74.6206 5.80943 75.1881 6.37696 75.1881 7.07423C75.1881 7.77238 74.6206 8.33991 73.9224 8.33991H62.7837C62.0865 8.33991 61.5189 7.77238 61.5189 7.07423C61.5189 6.37696 62.0865 5.80943 62.7837 5.80943Z" fill="#5e2ced"/>
</svg>

<?xml version="1.0" encoding="utf-8"?>
<!-- Generator: Adobe Illustrator 24.0.1, SVG Export Plug-In . SVG Version: 6.00 Build 0)  -->
<svg version="1.1" id="Слой_1" xmlns="http://www.w3.org/2000/svg" xmlns:xlink="http://www.w3.org/1999/xlink" x="0px" y="0px"
	 viewBox="0 0 83 70" style="enable-background:new 0 0 83 70;" xml:space="preserve">
<style type="text/css">
	.st0{fill:#FFFFFF;}
</style>
<path class="st0" d="M58.9,32.8c-0.2-0.4-0.6-0.6-1-0.6c-0.4,0-0.8,0.2-1.1,0.5l-3.9,4.9L46,27v-5.8h7.9c0.7,0,1.3-0.6,1.3-1.3v-6.5
	c0-0.7-0.6-1.3-1.3-1.3h-9.3c-0.7,0-1.3,0.6-1.3,1.3v6.5V27L27.5,48.5l-4.9-7.8c-0.2-0.4-0.6-0.6-1.1-0.6c-0.4,0-0.9,0.2-1.1,0.5
	L0.3,67.9c-0.3,0.4-0.3,0.9-0.1,1.4C0.4,69.7,0.8,70,1.3,70h79.4c0,0,0,0,0,0c0.7,0,1.3-0.6,1.3-1.3c0-0.3-0.1-0.6-0.3-0.9
	L58.9,32.8z M44.6,29.7l7.1,10.8l1.4,2.2l-4.7,2.9l-4.6-5.1c-0.3-0.3-0.6-0.5-1-0.4c-0.4,0-0.8,0.2-1,0.5l-4.6,6.1l-2.5-3.5
	L44.6,29.7z M52.6,18.5H46v-3.8h6.6V18.5z M21.4,43.8l2.2,3.5L19,50.6l-1.6-1.3L21.4,43.8z M4,67.4l11.8-16l2.3,1.9
	c0.2,0.2,0.5,0.3,0.8,0.3c0.3,0,0.5-0.1,0.8-0.3l5.2-3.8l0.8,1.3l-5.6,7.4c-0.4,0.6-0.3,1.4,0.3,1.9c0.2,0.2,0.5,0.3,0.8,0.3
	c0.4,0,0.8-0.2,1.1-0.5l6.1-8.1c0,0,0,0,0,0c0,0,0,0,0,0l4.5-6.2l3,4.3c0.2,0.3,0.6,0.6,1.1,0.6c0,0,0,0,0,0c0.4,0,0.8-0.2,1.1-0.5
	l4.8-6.3l4.3,4.7c0.4,0.5,1.1,0.6,1.7,0.2l5.7-3.5l7,10.7c0.3,0.4,0.7,0.6,1.1,0.6c0.2,0,0.5-0.1,0.7-0.2c0.6-0.4,0.8-1.2,0.4-1.8
	l-9.4-14.3l3.3-4.1l20.6,31.6H4z"/>
<path class="st0" d="M12.4,19.5h12.4c2.2,0,4-1.8,4-4s-1.8-4-4-4h-2.4C21.8,9.7,20,8.3,18,8.3s-3.7,1.3-4.3,3.2h-1.4
	c-2.2,0-4,1.8-4,4S10.2,19.5,12.4,19.5z M12.4,14.1h2.5c0.7,0,1.3-0.6,1.3-1.3c0-1,0.8-1.8,1.8-1.8c1,0,1.8,0.8,1.8,1.8
	c0,0.7,0.6,1.3,1.3,1.3h3.6c0.7,0,1.4,0.6,1.4,1.4c0,0.7-0.6,1.4-1.4,1.4H12.4c-0.7,0-1.4-0.6-1.4-1.4C11,14.8,11.6,14.1,12.4,14.1z
	"/>
<path class="st0" d="M62.8,11h11.1c2.2,0,3.9-1.8,3.9-3.9c0-2.2-1.8-3.9-3.9-3.9h-2.8c-0.4-1.8-2-3.2-3.9-3.2
	c-1.9,0-3.5,1.4-3.9,3.2h-0.6c-2.2,0-3.9,1.8-3.9,3.9C58.9,9.2,60.6,11,62.8,11z M62.8,5.8h1.9c0.4,0,0.8-0.2,1-0.5
	C65.9,5,66,4.6,65.9,4.2c0-0.1,0-0.2,0-0.3c0-0.7,0.6-1.3,1.3-1.3c0.7,0,1.3,0.6,1.3,1.3c0,0.1,0,0.2,0,0.3c-0.1,0.4,0,0.8,0.3,1.1
	c0.3,0.3,0.6,0.5,1,0.5h4.1c0.7,0,1.3,0.6,1.3,1.3c0,0.7-0.6,1.3-1.3,1.3H62.8c-0.7,0-1.3-0.6-1.3-1.3C61.5,6.4,62.1,5.8,62.8,5.8z"
	/>
</svg>
